X:1
T:Title
%%score ( 1 2 ) { 3 | 4 }
L:1/8
Q:1/4=108
M:2/4
K:G
V:1 treble nm="Church Organ, Unnamed-000"
V:2 treble 
V:3 bass nm="Church Organ, Bereden v�g f�r Herran"
V:4 bass 
V:1
 [DG]2 [EG]2 | [EG]2 [DG]2 | [CE]2 [CD]2- | [CD]2 [B,D]2 | D2 [CE]2 | [DG]2 [EG]2 | [DF]2 [DG]2- | %7
w: By~Swedish~melody,~before~1560 *|||||||
 [DG]4 | [DG]2 [EG]2 | [EG]2 [DG]2 | [CE]2 [CD]2- | [CD]2 [B,D]2 | D2 [CE]2 | [DG]2 [EG]2 | %14
w: |||||||
 [DF]2 [DG]2- | [DG]4 | [DB]2 [EB]2 | [DB]2 [Dd]2 | [DB]2 [^CA]2- | [CA]2 [DA]2 | [EA]2 [DA]2 | %21
w: |||||||
 [FA]2 [EA]2 | [DF]2 E2- | [^CE]2 [DF]2 | [^CE]2 D2 | [B,G]2 [EA]2 | [DA]2 [Dd]2- | [Dd]4 | %28
w: |||||||
 [EB]2 [FB]2 | [EB]2 [EA]2 | [DA]2 [B,G]2- | [B,G]4- | [B,G]2 z2 |] %33
w: |||||
V:2
 x4 | x4 | x4 | x4 | x4 | x4 | x4 | x4 | x4 | x4 | x4 | x4 | x4 | x4 | x4 | x4 | x4 | x4 | x4 | %19
 x4 | x4 | x4 | z2 D2 | x4 | x4 | x4 | x4 | x4 | x4 | x4 | x4 | x4 | x4 |] %33
V:3
 B,2 B,2 | C2 G,2 | G,2 F,2- | F,2 G,2 | G,2 G,2 | B,2 A,2 | A,2 B,2- | B,4 | B,2 B,2 | C2 G,2 | %10
 G,2 F,2- | F,2 G,2 | G,2 G,2 | B,2 A,2 | A,2 B,2- | B,4 | G,2 G,2 | G,2 A,2 | G,2 G,2- | G,2 F,2 | %20
 E,2 A,2 | A,2 A,2 | A,2 A,2- | A,2 A,2 | A,2 F,2 | G,2 G,2 | F,2 G,2- | G,4 | G,2 F,2 | G,2 G,2 | %30
 F,2 G,2- | G,4- | G,2 z2 |] %33
V:4
 G,2 E,2 | C,2 B,,2 | C,2 A,,2- | A,,2 B,,2 | C,2 C,2 | B,,2 C,2 | D,2 G,,2- | G,,4 | G,2 E,2 | %9
 C,2 B,,2 | C,2 A,,2- | A,,2 B,,2 | C,2 C,2 | B,,2 C,2 | D,2 G,,2- | G,,4 | z2 E,2 | B,,2 F,2 | %18
 z2 E,2- | E,2 D,2 | ^C,2 F,2 | D,2 ^C,2 | D,2 A,,2- | A,,2 D,2 | A,,2 B,,2 | E,2 C,2 | D,2 B,,2- | %27
 B,,4 | E,2 ^D,2 | E,2 C,2 | D,2 G,,2- | G,,4- | G,,2 z2 |] %33

